public/icons/tokens/metis.svg

<svg width="256" height="256" viewBox="0 0 256 256" fill="none" xmlns="http://www.w3.org/2000/svg">
<circle cx="128" cy="128" r="128" fill="#303145"/>
<path d="M207.987 125.276C207.677 110.92 203.509 96.912 195.92 84.7219C188.331 72.5318 177.601 62.6089 164.857 55.9942C152.112 49.3795 137.822 46.3169 123.486 47.1277C109.15 47.9384 95.2959 52.5928 83.3782 60.6023C71.4604 68.6118 61.918 79.6812 55.7519 92.6492C49.5859 105.617 47.0236 120.006 48.3338 134.305C49.644 148.605 54.7785 162.288 63.1986 173.919C71.6187 185.551 83.0139 194.702 96.1888 200.412C100.08 194.563 103.059 188.155 105.022 181.41C106.626 177.329 108.368 173.315 110.173 169.432C114.529 170.737 119.158 170.834 123.564 169.714C127.971 168.594 131.991 166.298 135.196 163.072L135.464 162.803C131.529 161.34 127.287 160.896 123.134 161.514C118.982 162.132 115.053 163.791 111.714 166.337C113.922 161.719 116.332 157.238 118.805 152.889C123.081 154.401 127.688 154.721 132.132 153.813C136.576 152.906 140.688 150.805 144.029 147.737L144.297 147.469C140.496 145.86 136.354 145.22 132.245 145.606C128.135 145.991 124.185 147.39 120.748 149.677C123.222 145.596 125.765 141.582 128.444 137.833C132.869 138.996 137.527 138.924 141.915 137.627C146.302 136.329 150.25 133.855 153.332 130.473L153.533 130.205C149.879 129.013 145.996 128.695 142.196 129.276C138.397 129.857 134.786 131.322 131.655 133.551C131.857 133.282 132.125 132.95 132.323 132.682C133.927 130.608 135.602 128.534 137.27 126.527C142.362 124.86 146.903 121.837 150.404 117.781C153.906 113.725 156.235 108.792 157.141 103.511L157.208 103.108H157.141C151.838 104.487 147.028 107.324 143.256 111.297C139.483 115.27 136.899 120.22 135.796 125.587C134.192 127.527 132.585 129.474 131.048 131.473C132.345 128.081 132.874 124.444 132.597 120.822C132.32 117.201 131.243 113.686 129.444 110.531L129.242 110.8C126.513 114.528 124.868 118.939 124.49 123.545C124.112 128.15 125.016 132.77 127.101 136.894C124.557 140.508 122.084 144.186 119.741 148.066C120.496 144.166 120.3 140.142 119.17 136.333C118.04 132.525 116.01 129.045 113.251 126.188L113.116 126.523C111.41 130.776 110.906 135.416 111.662 139.936C112.417 144.456 114.402 148.68 117.399 152.147C115.056 156.228 112.848 160.443 110.707 164.793C111.357 160.73 111.029 156.572 109.749 152.662C108.469 148.752 106.274 145.204 103.347 142.314L103.213 142.649C101.686 147.107 101.403 151.896 102.393 156.503C103.384 161.11 105.61 165.359 108.834 168.796C107.421 171.806 106.092 174.802 104.82 177.961C104.471 177.64 104.061 177.39 103.616 177.226C101.333 176.563 99.1498 175.596 97.1251 174.35C95.4512 173.357 93.6741 172.549 91.8252 171.94C84.5998 169.598 85.6703 166.121 81.9322 159.093C80.7158 157.646 79.4231 156.265 78.0598 154.956C76.7949 154.135 75.7591 153.007 75.0494 151.677C74.2252 150.016 73.7035 148.221 73.5089 146.377C73.4868 145.357 73.1457 144.369 72.5335 143.553C71.9214 142.737 71.0689 142.133 70.0959 141.826C59.4573 138.148 64.2095 124.364 64.6087 122.555C64.4452 120.216 63.9257 117.915 63.0682 115.732C62.9786 115.448 62.9113 115.158 62.8668 114.863C62.583 113.435 62.6347 111.961 63.0179 110.556C63.4011 109.151 64.1054 107.855 65.0751 106.768C66.3471 105.496 70.7636 103.422 71.6999 102.218C72.6362 101.013 73.304 99.6735 74.2439 98.5393C77.2164 95.5741 80.6506 93.1112 84.4125 91.2466C87.4899 89.5753 88.027 85.2929 89.2283 83.9538C91.2352 81.6783 94.3126 81.6784 96.588 79.6714C97.7257 78.668 99.4146 78.1309 100.475 77.0638C105.819 72.1695 112.554 69.0601 119.745 68.1669C124.732 67.7603 129.751 68.2133 134.584 69.5061C135.284 69.6236 135.976 69.7805 136.658 69.976C147.696 70.3788 160.946 72.6507 165.762 77.3359C168.146 79.6268 169.917 82.4793 170.913 85.6321C171.695 88.0737 172.774 90.4101 174.125 92.5892L177.068 97.4051C178.943 100.442 179.544 104.097 178.739 107.574C178.197 109.265 178.15 111.076 178.605 112.793C180.157 115.136 181.976 117.292 184.025 119.216C184.839 120.022 185.735 120.74 186.7 121.357C188.965 122.709 191.154 124.183 193.257 125.774C193.326 126.419 193.22 127.071 192.948 127.66C192.677 128.249 192.252 128.753 191.717 129.12C189.844 130.791 186.23 133.403 186.23 133.403C186.36 134.142 186.585 134.861 186.897 135.544C187.431 136.48 188.636 137.953 188.237 139.222C187.837 140.49 185.226 141.565 185.961 142.967C186.696 144.441 188.569 144.84 188.035 146.179C187.502 147.451 184.891 149.712 185.159 150.663C185.428 151.613 187.569 160.556 182.615 162.104C176.485 163.316 170.263 164.01 164.016 164.178C163.009 164.236 162.032 164.549 161.178 165.087C160.324 165.625 159.621 166.371 159.133 167.255C158.185 169.024 157.573 170.952 157.328 172.944C155.52 180.066 153.126 187.025 150.169 193.752C150.169 193.752 149.968 194.154 149.7 194.755C149.051 196.077 148.643 197.505 148.495 198.97C148.916 200.047 149.553 201.026 150.367 201.847C150.796 202.338 151.358 202.694 151.985 202.872C152.612 203.05 153.278 203.042 153.901 202.85C169.936 197.262 183.797 186.754 193.509 172.824C203.221 158.895 208.288 142.254 207.987 125.276Z" fill="#00DACC"/>
</svg>

<svg width="256" height="256" viewBox="0 0 256 256" fill="none" xmlns="http://www.w3.org/2000/svg"><circle cx="128" cy="128" r="128" fill="#303145"/><path d="M207.987 125.276A80.001 80.001 0 0 0 55.752 92.649a80.007 80.007 0 0 0 40.437 107.763 69.238 69.238 0 0 0 8.833-19.002 215.617 215.617 0 0 1 5.151-11.978 25.11 25.11 0 0 0 25.023-6.36l.268-.269a24.876 24.876 0 0 0-23.75 3.534c2.208-4.618 4.618-9.099 7.091-13.448a24.977 24.977 0 0 0 25.224-5.152l.268-.268a24.955 24.955 0 0 0-23.549 2.208c2.474-4.081 5.017-8.095 7.696-11.844a25.053 25.053 0 0 0 24.888-7.36l.201-.268a24.578 24.578 0 0 0-21.878 3.346c.202-.269.47-.601.668-.869a226.297 226.297 0 0 1 4.947-6.155 29.454 29.454 0 0 0 19.871-23.016l.067-.403h-.067a29.321 29.321 0 0 0-21.345 22.479c-1.604 1.94-3.211 3.887-4.748 5.886a24.573 24.573 0 0 0-1.604-20.942l-.202.269a25.045 25.045 0 0 0-2.141 26.094c-2.544 3.614-5.017 7.292-7.36 11.172a24.727 24.727 0 0 0-6.49-21.878l-.135.335a24.965 24.965 0 0 0 4.283 25.624c-2.343 4.081-4.551 8.296-6.692 12.646a25.858 25.858 0 0 0-7.36-22.479l-.134.335a25.936 25.936 0 0 0 5.621 26.147 176.653 176.653 0 0 0-4.014 9.165 3.639 3.639 0 0 0-1.204-.735 26.468 26.468 0 0 1-6.49-2.876 26.854 26.854 0 0 0-5.3-2.41c-7.226-2.342-6.156-5.819-9.894-12.847a53.143 53.143 0 0 0-3.872-4.137 8.91 8.91 0 0 1-3.01-3.279 15.61 15.61 0 0 1-1.541-5.3 4.883 4.883 0 0 0-3.413-4.551c-10.639-3.678-5.886-17.462-5.487-19.271a23.061 23.061 0 0 0-1.54-6.823 5.723 5.723 0 0 1-.202-.869 9.402 9.402 0 0 1 2.208-8.095c1.272-1.272 5.689-3.346 6.625-4.55.936-1.205 1.604-2.544 2.544-3.679a38.79 38.79 0 0 1 10.168-7.292c3.078-1.672 3.615-5.954 4.816-7.293 2.007-2.276 5.085-2.276 7.36-4.283 1.138-1.003 2.827-1.54 3.887-2.607a34.901 34.901 0 0 1 19.27-8.897 43.685 43.685 0 0 1 14.839 1.34c.7.117 1.392.273 2.074.469 11.038.403 24.288 2.675 29.104 7.36a19.762 19.762 0 0 1 5.151 8.296 31.352 31.352 0 0 0 3.212 6.957l2.943 4.816a13.543 13.543 0 0 1 1.671 10.169 9.297 9.297 0 0 0-.134 5.219 36.34 36.34 0 0 0 5.42 6.423c.814.806 1.71 1.524 2.675 2.141a72.214 72.214 0 0 1 6.557 4.417 3.588 3.588 0 0 1-1.54 3.346c-1.873 1.671-5.487 4.283-5.487 4.283.13.739.355 1.458.667 2.141.534.936 1.739 2.409 1.34 3.678-.4 1.268-3.011 2.343-2.276 3.745.735 1.474 2.608 1.873 2.074 3.212-.533 1.272-3.144 3.533-2.876 4.484.269.95 2.41 9.893-2.544 11.441a111.323 111.323 0 0 1-18.599 2.074 5.97 5.97 0 0 0-4.883 3.077 16.238 16.238 0 0 0-1.805 5.689 133.074 133.074 0 0 1-7.159 20.808s-.201.402-.469 1.003a12.393 12.393 0 0 0-1.205 4.215 8.461 8.461 0 0 0 1.872 2.877 3.371 3.371 0 0 0 3.534 1.003 80.637 80.637 0 0 0 54.086-77.574Z" fill="#00DACC"/></svg>
